images/buildings/parking-lot-right.svg

<?xml version="1.0" standalone="no"?><!DOCTYPE svg PUBLIC "-//W3C//DTD SVG 1.1//EN" "http://www.w3.org/Graphics/SVG/1.1/DTD/svg11.dtd"><svg width="864px" height="672px" version="1.1" xmlns="http://www.w3.org/2000/svg" xmlns:xlink="http://www.w3.org/1999/xlink" xml:space="preserve" style="fill-rule:evenodd;clip-rule:evenodd;stroke-linejoin:round;stroke-miterlimit:1.41421;"><g><g id="parking-lot-right" transform="matrix(0.5,0,0,0.5,0,-288)"><g id="parking-sign"><path d="M134.461,1894.96l45.379,0l-22.227,-930.162l-18.281,9.262l-4.871,920.9Z" style="fill:#5d5f60;fill-rule:nonzero;"/><path d="M179.844,1894.96l-45.387,0l36.813,-352.777l8.574,352.777Z" style="fill:#2a2b2a;fill-rule:nonzero;"/><path d="M138.039,1223.8l19.566,-258.996l-18.277,9.292l-1.289,249.704Z" style="fill:#2a2b2a;fill-rule:nonzero;"/><path d="M73.8906,784.803l154.441,0l3.645,85.947l-11.633,102.918l-144.949,0l-25.149,-102.918l23.645,-85.947Z" style="fill:#49799d;fill-rule:nonzero;"/><path d="M220.473,957.935l-144.703,0l-10.254,-99.259l9.98,-73.998l145.2,0l9.984,74.062l-10.207,99.195ZM56.6247,765.721l-9.992,93.018l10.27,117.996l182.488,0l10.219,-117.871l-9.996,-93.143l-182.989,0Z" style="fill:#f3f2ed;fill-rule:nonzero;"/><path d="M169.57,865.52l0,-0.006l-44.75,0l0,-37.832l44.75,0l0,-0.006l11.125,11.125l0,15.594l-11.125,11.125ZM199.566,831.012l-0.035,0.012l0.019,-0.051l-22.164,-22.167l-71.433,-0.027l-0.043,123.733l18.91,0.063l0,-48.192l52.566,0.007l22.164,-22.167l-0.003,-0.013l0.019,-0.01l0,-31.188Z" style="fill:#f3f2ed;fill-rule:nonzero;"/></g><g id="ground"><rect x="0" y="1896" width="1728" height="24" style="fill:#5d5e5f;fill-rule:nonzero;"/></g><g id="sideways-car"><path d="M199.096,1851.45l21.67,-54.006l69.83,0l22.826,52.672" style="fill:#5c5f60;fill-rule:nonzero;"/><path d="M582.096,1851.45l21.67,-54.006l69.83,0l22.826,52.672" style="fill:#5c5f60;fill-rule:nonzero;"/><path d="M199.096,1854.45l21.67,-54.006l69.83,0l22.826,52.672" style="fill:#5c5f60;fill-rule:nonzero;"/><path d="M582.096,1854.45l21.67,-54.006l69.83,0l22.826,52.672" style="fill:#5c5f60;fill-rule:nonzero;"/><path d="M171.041,1862.71l-18.75,-102.76l151.021,-24.5l130.665,-75.17l314.541,0l53.273,85.17l-18.75,117.155l-85.305,0.015l-22.445,-51.545l-69.25,0l-21.082,51.711l-269,-0.002l-22.5,-51.334l-69.668,-0.5l-21.336,51.668l-31.414,0.092Z" style="fill:#e4e2dc;fill-rule:nonzero;"/><path d="M206.088,1854.43l-34.961,7.113l0.25,1.188l31.549,0.017" style="fill:#f3f2ec;fill-rule:nonzero;"/><path d="M783.322,1862.59l-85.313,0.02l-22.343,-51.489l-69.664,-0.123l-16.836,51.633l-273.754,0.061l-22.16,-51.28l-69.334,-0.496l-21.502,52.502l-31.166,-0.166l-18.334,-103.506l151.25,-24.75l71.672,-0.25l412.234,98.625l-4.75,29.219Z" style="fill:#f3f2ec;fill-rule:nonzero;"/><path d="M802.064,1745.23l-4.469,28.781l-43.867,0.028l-10.852,-29.059l59.188,0.25Z" style="fill:#ad2125;fill-rule:nonzero;"/><path d="M219.283,1768.72l-2.166,28.916l-57.647,0.027l-5.25,-29.021l65.063,0.078Z" style="fill:#f6f1e1;fill-rule:nonzero;"/><path d="M802.127,1745.1l-1.24,8.053l-55.01,-0.084l-3.031,-8.125l59.281,0.156Z" style="fill:#fec;fill-rule:nonzero;"/><path d="M324.117,1734.95l113.502,-67.006l228.283,0l38.694,65.674l-380.479,1.332Z" style="fill:#313156;fill-rule:nonzero;"/><path d="M753.592,1667.95l-34.188,-0.004l73.528,62.75l-39.34,-62.746Z" style="fill:#313156;fill-rule:nonzero;"/><path d="M521.012,1663.2l7.557,2.344l-15.161,89.338l-8.011,-1.668l15.615,-90.014Z" style="fill:#e4e2dc;fill-rule:nonzero;"/><path d="M375.096,1726.2l0.793,8.584l10.041,-0.041l-1.002,-9.955l-9.832,1.412Z" style="fill:#c0bdba;fill-rule:nonzero;"/><path d="M375.096,1726.2l-1.5,-15.75l29.5,-5.5l3.75,21.5l-31.75,-0.25Z" style="fill:#e4e2dc;fill-rule:nonzero;"/><path d="M285.932,1860.03c0,15.602 -12.648,28.25 -28.25,28.25c-15.602,0 -28.25,-12.648 -28.25,-28.25c0,-15.602 12.648,-28.25 28.25,-28.25c15.602,0 28.25,12.648 28.25,28.25" style="fill:#e3e1db;fill-rule:nonzero;"/><path d="M258.766,1885.17c-14.041,0 -25.424,-11.383 -25.424,-25.422c0,-14.041 11.383,-25.424 25.424,-25.424c14.041,0 25.424,11.383 25.424,25.424c0,14.039 -11.383,25.422 -25.424,25.422M258.766,1818.75c-22.645,0 -41,18.358 -41,41c0,22.643 18.355,41 41,41c22.645,0 41,-18.357 41,-41c0,-22.642 -18.355,-41 -41,-41" style="fill:#2a2b2a;fill-rule:nonzero;"/><path d="M669.262,1860.03c0,15.602 -12.648,28.25 -28.25,28.25c-15.602,0 -28.25,-12.648 -28.25,-28.25c0,-15.602 12.648,-28.25 28.25,-28.25c15.602,0 28.25,12.648 28.25,28.25" style="fill:#e3e1db;fill-rule:nonzero;"/><path d="M642.096,1885.17c-14.041,0 -25.424,-11.383 -25.424,-25.422c0,-14.041 11.383,-25.424 25.424,-25.424c14.041,0 25.424,11.383 25.424,25.424c0,14.039 -11.383,25.422 -25.424,25.422M642.096,1818.75c-22.645,0 -41,18.358 -41,41c0,22.643 18.355,41 41,41c22.645,0 41,-18.357 41,-41c0,-22.642 -18.355,-41 -41,-41" style="fill:#2a2b2a;fill-rule:nonzero;"/></g><g id="car-inbound" transform="matrix(2,0,0,2,938.158,1509.49)"><g transform="matrix(1,0,0,1,0,-10.3296)"><path d="M127.589,121.742l13.651,-2.45l2.8,-7.279l-15.261,-2.662l-1.259,6.721l-2.321,2.339Z" style="fill:#e4e2dc;fill-rule:nonzero;"/></g><g transform="matrix(1,0,0,1,0,-10.3296)"><path d="M127.604,121.746l-2.327,-3.494l2.259,-2.185l1.269,-6.697l1.297,0.208l6.621,10.502Z" style="fill:#c1bebb;fill-rule:nonzero;"/></g><g transform="matrix(1,0,0,1,0,-10.3296)"><path d="M0,111.919l2.8,7.279l13.651,2.45l2.39,-3.331l-2.321,-2.339l-1.26,-6.72Z" style="fill:#e4e2dc;fill-rule:nonzero;"/></g><g transform="matrix(1,0,0,1,0,-10.3296)"><path d="M16.4668,121.646l2.327,-3.494l-2.259,-2.185l-1.269,-6.697l-1.297,0.208l-6.641,10.531Z" style="fill:#c1bebb;fill-rule:nonzero;"/></g><path d="M3.8898,173.884l1.68,19.532l19.321,0l3.991,-19.742Z" style="fill:#5c5e5f;fill-rule:nonzero;"/><path d="M24.0516,173.674l0.84,19.742l5.992,-19.742Z" style="fill:#2a2b2a;fill-rule:nonzero;"/><path d="M117.358,193.416l19.35,0l1.68,-19.321l-24.993,-0.211Z" style="fill:#5c5e5f;fill-rule:nonzero;"/><path d="M111.394,173.884l5.964,19.532l0.869,-19.532Z" style="fill:#2a2b2a;fill-rule:nonzero;"/><g transform="matrix(1,-3.22153e-17,-3.22153e-17,1.13153,0,-22.926)"><path d="M29.4678,85.9277l-28.118,49.341l2.519,38.615l1.89,0.006l132.637,0.414l3.796,-38.796l-27.505,-49.58Z" style="fill:#e4e2dc;fill-rule:nonzero;"/></g><g transform="matrix(1,-8.52366e-17,-8.52366e-17,1.348,1.39815e-14,-42.2467)"><path d="M32.958,89.498l-15.6294,22.2696l107.925,1.7053e-13l-13.6694,-22.2696Z" style="fill:#313156;fill-rule:nonzero;"/></g><g transform="matrix(1.35601,0,0,1.35601,-9.08601,-43.1939)"><path d="M31.0322,89.668l-11.5526,22.1381l20.6308,5.68434e-14l22.0581,-22.1381Z" style="fill:#0f2342;fill-opacity:0.300003;fill-rule:nonzero;"/></g><path d="M111.625,78.397l-3.65614,5.72697e-12l-30.219,30.0195l47.5041,3.09797e-12l-13.629,-30.0195Z" style="fill:#0a1723;fill-opacity:0.300003;fill-rule:nonzero;"/><g transform="matrix(1.34973,0,0,1.34973,-25.576,-42.4401)"><path d="M76.9538,111.768l21.9876,-22.241l-6.14,2.84217e-14l-21.571,22.241Z" style="fill:#494a72;fill-rule:nonzero;"/></g><g transform="matrix(1,0,0,1,-199.295,-4.4702)"><path d="M200.645,135.387l0.86688,14.5l28.1193,-0.028l1.051,-14.511Z" style="fill:#f6f1e1;fill-rule:nonzero;"/></g><g transform="matrix(1,0,0,1,-199.295,-4.4702)"><path d="M230.683,135.348l7.571,12.829l-8.623,1.682Z" style="fill:#ef9c74;fill-rule:nonzero;"/></g><g transform="matrix(1,0,0,1,-199.295,-4.4702)"><path d="M341.445,135.387l-1.26346,14.458l-27.344,0.014l-1.052,-14.511l29.6594,0.039Z" style="fill:#f6f1e1;fill-rule:nonzero;"/></g><g transform="matrix(1,0,0,1,-199.295,-4.4702)"><path d="M311.786,135.348l-5.818,12.829l6.87,1.682Z" style="fill:#ef9c74;fill-rule:nonzero;"/></g><g transform="matrix(1,0,0,1,-199.295,-4.4702)"><path d="M311.753,135.388l-81.06,-0.043l7.604,12.831l67.715,0Z" style="fill:#2a2b2a;fill-rule:nonzero;"/></g><g transform="matrix(1,0,0,1,-199.295,-4.4702)"><path d="M306.083,139.461l-1.926,3.936l-64.038,0.055l-2.592,-4.272Z" style="fill:#5c5e5f;fill-rule:nonzero;"/></g></g><g id="parking-stops"><path d="M138.473,1869.12l9.098,27.356l-54.383,0.102l8.853,-27.577l36.432,0.119Z" style="fill:#e4e2dc;fill-rule:nonzero;"/><path d="M1210.87,1869.12l9.098,27.356l-280,0.102l8.853,-27.577l262.049,0.119Z" style="fill:#e4e2dc;fill-rule:nonzero;"/><path d="M1642.87,1869.12l9.098,27.356l-280,0.102l8.853,-27.577l262.049,0.119Z" style="fill:#e4e2dc;fill-rule:nonzero;"/></g></g></g></svg>

<?xml version="1.0" encoding="UTF-8" standalone="no"?>
<!DOCTYPE svg PUBLIC "-//W3C//DTD SVG 1.1//EN" "http://www.w3.org/Graphics/SVG/1.1/DTD/svg11.dtd">
<svg width="100%" height="100%" viewBox="0 0 1100 800" version="1.1" xmlns="http://www.w3.org/2000/svg" xmlns:xlink="http://www.w3.org/1999/xlink" xml:space="preserve" xmlns:serif="http://www.serif.com/" style="fill-rule:evenodd;clip-rule:evenodd;stroke-linejoin:round;stroke-miterlimit:2;">
    <g id="parking-lot-right" transform="matrix(0.635,0,0,0.635,0,-419.2)">
        <g id="parking-sign">
            <path d="M134.461,1894.96L179.84,1894.96L157.613,964.799L139.332,974.061L134.461,1894.96Z" style="fill:rgb(93,95,96);fill-rule:nonzero;"/>
            <path d="M179.844,1894.96L134.457,1894.96L171.27,1542.18L179.844,1894.96Z" style="fill:rgb(42,43,42);fill-rule:nonzero;"/>
            <path d="M138.039,1223.8L157.605,964.799L139.328,974.091L138.039,1223.8Z" style="fill:rgb(42,43,42);fill-rule:nonzero;"/>
            <path d="M73.891,784.803L228.332,784.803L231.977,870.75L220.344,973.668L75.395,973.668L50.246,870.75L73.891,784.803Z" style="fill:rgb(73,121,157);fill-rule:nonzero;"/>
            <path d="M220.473,957.935L75.77,957.935L65.516,858.676L75.496,784.678L220.696,784.678L230.68,858.74L220.473,957.935ZM56.625,765.721L46.633,858.739L56.903,976.735L239.391,976.735L249.61,858.864L239.614,765.721L56.625,765.721Z" style="fill:rgb(243,242,237);fill-rule:nonzero;"/>
            <path d="M169.57,865.52L169.57,865.514L124.82,865.514L124.82,827.682L169.57,827.682L169.57,827.676L180.695,838.801L180.695,854.395L169.57,865.52ZM199.566,831.012L199.531,831.024L199.55,830.973L177.386,808.806L105.953,808.779L105.91,932.512L124.82,932.575L124.82,884.383L177.386,884.39L199.55,862.223L199.547,862.21L199.566,862.2L199.566,831.012Z" style="fill:rgb(243,242,237);fill-rule:nonzero;"/>
        </g>
        <g transform="matrix(1.00248,0,0,1.00248,0,-4.75941)">
            <g id="ground">
                <rect x="0" y="1896" width="1728" height="24" style="fill:rgb(93,94,95);fill-rule:nonzero;"/>
            </g>
        </g>
        <g id="sideways-car">
            <path d="M199.096,1851.45L220.766,1797.45L290.596,1797.45L313.422,1850.12" style="fill:rgb(92,95,96);fill-rule:nonzero;"/>
            <path d="M582.096,1851.45L603.766,1797.45L673.596,1797.45L696.422,1850.12" style="fill:rgb(92,95,96);fill-rule:nonzero;"/>
            <path d="M199.096,1854.45L220.766,1800.45L290.596,1800.45L313.422,1853.12" style="fill:rgb(92,95,96);fill-rule:nonzero;"/>
            <path d="M582.096,1854.45L603.766,1800.45L673.596,1800.45L696.422,1853.12" style="fill:rgb(92,95,96);fill-rule:nonzero;"/>
            <path d="M171.041,1862.71L152.291,1759.95L303.312,1735.45L433.977,1660.28L748.518,1660.28L801.791,1745.45L783.041,1862.6L697.736,1862.62L675.291,1811.07L606.041,1811.07L584.959,1862.78L315.959,1862.78L293.459,1811.45L223.791,1810.95L202.455,1862.62L171.041,1862.71Z" style="fill:rgb(228,226,220);fill-rule:nonzero;"/>
            <path d="M206.088,1854.43L171.127,1861.54L171.377,1862.73L202.926,1862.75" style="fill:rgb(243,242,236);fill-rule:nonzero;"/>
            <path d="M783.322,1862.59L698.009,1862.61L675.666,1811.12L606.002,1811L589.166,1862.63L315.412,1862.69L293.252,1811.41L223.918,1810.92L202.416,1863.42L171.25,1863.26L152.916,1759.75L304.166,1735L375.838,1734.75L788.072,1833.37L783.322,1862.59Z" style="fill:rgb(243,242,236);fill-rule:nonzero;"/>
            <path d="M802.064,1745.23L797.595,1774.01L753.728,1774.04L742.877,1744.98L802.064,1745.23Z" style="fill:rgb(173,33,37);fill-rule:nonzero;"/>
            <path d="M219.283,1768.72L217.117,1797.64L159.47,1797.66L154.22,1768.64L219.283,1768.72Z" style="fill:rgb(246,241,225);fill-rule:nonzero;"/>
            <path d="M802.127,1745.1L800.887,1753.16L745.877,1753.07L742.846,1744.95L802.127,1745.1Z" style="fill:rgb(255,238,204);fill-rule:nonzero;"/>
            <path d="M324.117,1734.95L437.619,1667.95L665.902,1667.95L704.596,1733.62L324.117,1734.95Z" style="fill:rgb(49,49,86);fill-rule:nonzero;"/>
            <path d="M753.592,1667.95L719.404,1667.95L792.932,1730.7L753.592,1667.95Z" style="fill:rgb(49,49,86);fill-rule:nonzero;"/>
            <path d="M521.012,1663.2L528.569,1665.54L513.408,1754.88L505.397,1753.21L521.012,1663.2Z" style="fill:rgb(228,226,220);fill-rule:nonzero;"/>
            <path d="M375.096,1726.2L375.889,1734.78L385.93,1734.74L384.928,1724.79L375.096,1726.2Z" style="fill:rgb(192,189,186);fill-rule:nonzero;"/>
            <path d="M375.096,1726.2L373.596,1710.45L403.096,1704.95L406.846,1726.45L375.096,1726.2Z" style="fill:rgb(228,226,220);fill-rule:nonzero;"/>
            <path d="M285.932,1860.03C285.932,1875.64 273.284,1888.28 257.682,1888.28C242.08,1888.28 229.432,1875.64 229.432,1860.03C229.432,1844.43 242.08,1831.78 257.682,1831.78C273.284,1831.78 285.932,1844.43 285.932,1860.03" style="fill:rgb(227,225,219);fill-rule:nonzero;"/>
            <path d="M258.766,1885.17C244.725,1885.17 233.342,1873.79 233.342,1859.75C233.342,1845.71 244.725,1834.33 258.766,1834.33C272.807,1834.33 284.19,1845.71 284.19,1859.75C284.19,1873.79 272.807,1885.17 258.766,1885.17M258.766,1818.75C236.121,1818.75 217.766,1837.11 217.766,1859.75C217.766,1882.39 236.121,1900.75 258.766,1900.75C281.411,1900.75 299.766,1882.39 299.766,1859.75C299.766,1837.11 281.411,1818.75 258.766,1818.75" style="fill:rgb(42,43,42);fill-rule:nonzero;"/>
            <path d="M669.262,1860.03C669.262,1875.64 656.614,1888.28 641.012,1888.28C625.41,1888.28 612.762,1875.64 612.762,1860.03C612.762,1844.43 625.41,1831.78 641.012,1831.78C656.614,1831.78 669.262,1844.43 669.262,1860.03" style="fill:rgb(227,225,219);fill-rule:nonzero;"/>
            <path d="M642.096,1885.17C628.055,1885.17 616.672,1873.79 616.672,1859.75C616.672,1845.71 628.055,1834.33 642.096,1834.33C656.137,1834.33 667.52,1845.71 667.52,1859.75C667.52,1873.79 656.137,1885.17 642.096,1885.17M642.096,1818.75C619.451,1818.75 601.096,1837.11 601.096,1859.75C601.096,1882.39 619.451,1900.75 642.096,1900.75C664.741,1900.75 683.096,1882.39 683.096,1859.75C683.096,1837.11 664.741,1818.75 642.096,1818.75" style="fill:rgb(42,43,42);fill-rule:nonzero;"/>
        </g>
        <g id="car-inbound" transform="matrix(2,0,0,2,938.158,1509.49)">
            <g transform="matrix(1,0,0,1,0,-10.3296)">
                <path d="M127.589,121.742L141.24,119.292L144.04,112.013L128.779,109.351L127.52,116.072L125.199,118.411L127.589,121.742Z" style="fill:rgb(228,226,220);fill-rule:nonzero;"/>
            </g>
            <g transform="matrix(1,0,0,1,0,-10.3296)">
                <path d="M127.604,121.746L125.277,118.252L127.536,116.067L128.805,109.37L130.102,109.578L136.723,120.08L127.604,121.746Z" style="fill:rgb(193,190,187);fill-rule:nonzero;"/>
            </g>
            <g transform="matrix(1,0,0,1,0,-10.3296)">
                <path d="M0,111.919L2.8,119.198L16.451,121.648L18.841,118.317L16.52,115.978L15.26,109.258L0,111.919Z" style="fill:rgb(228,226,220);fill-rule:nonzero;"/>
            </g>
            <g transform="matrix(1,0,0,1,0,-10.3296)">
                <path d="M16.467,121.646L18.794,118.152L16.535,115.967L15.266,109.27L13.969,109.478L7.328,120.009L16.467,121.646Z" style="fill:rgb(193,190,187);fill-rule:nonzero;"/>
            </g>
            <path d="M3.89,173.884L5.57,193.416L24.891,193.416L28.882,173.674L3.89,173.884Z" style="fill:rgb(92,94,95);fill-rule:nonzero;"/>
            <path d="M24.052,173.674L24.892,193.416L30.884,173.674L24.052,173.674Z" style="fill:rgb(42,43,42);fill-rule:nonzero;"/>
            <path d="M117.358,193.416L136.708,193.416L138.388,174.095L113.395,173.884L117.358,193.416Z" style="fill:rgb(92,94,95);fill-rule:nonzero;"/>
            <path d="M111.394,173.884L117.358,193.416L118.227,173.884L111.394,173.884Z" style="fill:rgb(42,43,42);fill-rule:nonzero;"/>
            <g transform="matrix(1,-3.22153e-17,-3.22153e-17,1.13153,0,-22.926)">
                <path d="M29.468,85.928L1.35,135.269L3.869,173.884L5.759,173.89L138.396,174.304L142.192,135.508L114.687,85.928L29.468,85.928Z" style="fill:rgb(228,226,220);fill-rule:nonzero;"/>
            </g>
            <g transform="matrix(1,-8.52366e-17,-8.52366e-17,1.348,1.39815e-14,-42.2467)">
                <path d="M32.958,89.498L17.329,111.768L125.254,111.768L111.584,89.498L32.958,89.498L32.958,89.498Z" style="fill:rgb(49,49,86);fill-rule:nonzero;"/>
            </g>
            <g transform="matrix(1.35601,0,0,1.35601,-9.08601,-43.1939)">
                <path d="M31.032,89.668L19.48,111.806L40.11,111.806L62.168,89.668L31.032,89.668L31.032,89.668Z" style="fill:rgb(15,35,66);fill-opacity:0.3;fill-rule:nonzero;"/>
            </g>
            <path d="M111.625,78.397L107.969,78.397L77.75,108.417L125.254,108.417L111.625,78.397L111.625,78.397Z" style="fill:rgb(10,23,35);fill-opacity:0.3;fill-rule:nonzero;"/>
            <g transform="matrix(1.34973,0,0,1.34973,-25.576,-42.4401)">
                <path d="M76.954,111.768L98.941,89.527L92.801,89.527L71.23,111.768L76.954,111.768L76.954,111.768Z" style="fill:rgb(73,74,114);fill-rule:nonzero;"/>
            </g>
            <g transform="matrix(1,0,0,1,-199.295,-4.4702)">
                <path d="M200.645,135.387L201.512,149.887L229.631,149.859L230.682,135.348L200.645,135.387L200.645,135.387Z" style="fill:rgb(246,241,225);fill-rule:nonzero;"/>
            </g>
            <g transform="matrix(1,0,0,1,-199.295,-4.4702)">
                <path d="M230.683,135.348L238.254,148.177L229.631,149.859L230.683,135.348Z" style="fill:rgb(239,156,116);fill-rule:nonzero;"/>
            </g>
            <g transform="matrix(1,0,0,1,-199.295,-4.4702)">
                <path d="M341.445,135.387L340.182,149.845L312.838,149.859L311.786,135.348L341.445,135.387L341.445,135.387Z" style="fill:rgb(246,241,225);fill-rule:nonzero;"/>
            </g>
            <g transform="matrix(1,0,0,1,-199.295,-4.4702)">
                <path d="M311.786,135.348L305.968,148.177L312.838,149.859L311.786,135.348Z" style="fill:rgb(239,156,116);fill-rule:nonzero;"/>
            </g>
            <g transform="matrix(1,0,0,1,-199.295,-4.4702)">
                <path d="M311.753,135.388L230.693,135.345L238.297,148.176L306.012,148.176L311.753,135.388Z" style="fill:rgb(42,43,42);fill-rule:nonzero;"/>
            </g>
            <g transform="matrix(1,0,0,1,-199.295,-4.4702)">
                <path d="M306.083,139.461L304.157,143.397L240.119,143.452L237.527,139.18L306.083,139.461Z" style="fill:rgb(92,94,95);fill-rule:nonzero;"/>
            </g>
        </g>
        <g id="parking-stops">
            <path d="M138.473,1869.12L147.571,1896.47L93.188,1896.57L102.041,1869L138.473,1869.12Z" style="fill:rgb(228,226,220);fill-rule:nonzero;"/>
            <path d="M1210.87,1869.12L1219.97,1896.47L939.969,1896.57L948.822,1869L1210.87,1869.12Z" style="fill:rgb(228,226,220);fill-rule:nonzero;"/>
            <path d="M1642.87,1869.12L1651.97,1896.47L1371.97,1896.57L1380.82,1869L1642.87,1869.12Z" style="fill:rgb(228,226,220);fill-rule:nonzero;"/>
        </g>
    </g>
</svg>
